packages/ffe-icons/icons/filled/md/emergency.svg

<svg xmlns="http://www.w3.org/2000/svg" height="24" viewBox="0 -960 960 960" width="24"><path d="M420.001-190v-185.309L259-282.462q-21.539 12.077-45.5 5.846t-36.038-28.505q-12.077-21.418-6.043-45.417 6.033-24 27.581-36L360.001-480 199-572.462q-21.548-11.952-27.581-36.284-6.034-24.331 6.043-45.869t36.231-27.769q24.153-6.231 45.691 5.846l160.617 92.847V-770q0-24.857 17.553-42.428 17.553-17.571 42.384-17.571t42.446 17.571q17.615 17.571 17.615 42.428v186.309L701-676.538q21.539-12.077 45.5-5.846t36.038 27.769q12.077 21.538 5.658 45.869-6.418 24.332-27.812 36.284L599.999-480 761-386.538q21.548 12 27.581 36 6.034 23.999-6.043 46.274-12.077 21.417-36.231 27.648-24.153 6.231-45.691-5.846l-160.617-92.847V-190q0 24.857-17.553 42.428-17.553 17.571-42.384 17.571t-42.446-17.571Q420.001-165.143 420.001-190Z"/></svg>

<svg xmlns="http://www.w3.org/2000/svg" height="24" viewBox="0 -960 960 960" width="24"><path d="M420-190v-185.31l-161 92.85q-21.54 12.07-45.5 5.84t-36.04-28.5q-12.07-21.42-6.04-45.42t27.58-36L360-480l-161-92.46q-21.55-11.95-27.58-36.29-6.03-24.33 6.04-45.86 12.08-21.54 36.23-27.77 24.16-6.23 45.69 5.84L420-583.69V-770q0-24.86 17.55-42.43Q455.11-830 479.94-830q24.83 0 42.44 17.57Q540-794.86 540-770v186.31l161-92.85q21.54-12.07 45.5-5.84t36.04 27.77q12.07 21.53 5.66 45.86-6.42 24.34-27.82 36.29L600-480l161 93.46q21.55 12 27.58 36 6.03 24-6.04 46.28-12.08 21.41-36.23 27.64-24.16 6.23-45.69-5.84L540-375.31V-190q0 24.86-17.55 42.43Q504.89-130 480.06-130q-24.83 0-42.44-17.57Q420-165.14 420-190Z"/></svg>
